static/img/kroki/d96a2203766fd4ac3e9b5f261be8e479.svg

<?xml version="1.0" encoding="us-ascii" standalone="no"?><svg xmlns="http://www.w3.org/2000/svg" xmlns:xlink="http://www.w3.org/1999/xlink" contentStyleType="text/css" height="451px" preserveAspectRatio="none" style="width:451px;height:451px;" version="1.1" viewBox="0 0 451 451" width="451px" zoomAndPan="magnify"><defs/><g><!--class aws_alb--><g id="elem_aws_alb"><rect codeLine="23" fill="#3D176E" height="39.7891" id="aws_alb" rx="2.5" ry="2.5" style="stroke:#000D19;stroke-width:0.5;" width="109" x="280.32" y="206.58"/><ellipse cx="295.32" cy="226.4745" fill="#ADD1B2" rx="11" ry="11" style="stroke:#181818;stroke-width:1.0;"/><path d="M298.2888,232.1152 Q297.7106,232.412 297.07,232.5527 Q296.4294,232.7089 295.7263,232.7089 Q293.2263,232.7089 291.8981,231.0683 Q290.5856,229.412 290.5856,226.287 Q290.5856,223.162 291.8981,221.5058 Q293.2263,219.8495 295.7263,219.8495 Q296.4294,219.8495 297.07,220.0058 Q297.7263,220.162 298.2888,220.4589 L298.2888,223.1777 Q297.6638,222.5995 297.07,222.3339 Q296.4763,222.0527 295.8513,222.0527 Q294.5075,222.0527 293.82,223.1308 Q293.1325,224.1933 293.1325,226.287 Q293.1325,228.3808 293.82,229.4589 Q294.5075,230.5214 295.8513,230.5214 Q296.4763,230.5214 297.07,230.2558 Q297.6638,229.9745 298.2888,229.3964 L298.2888,232.1152 Z " fill="#000000"/><text fill="#D9B8FF" font-family="Helvetica" font-size="17" lengthAdjust="spacing" textLength="67" x="314.32" y="232.3598">aws_alb</text></g><!--class aws_alb_target_group--><g id="elem_aws_alb_target_group"><rect codeLine="26" fill="#3D176E" height="39.7891" id="aws_alb_target_group" rx="2.5" ry="2.5" style="stroke:#000D19;stroke-width:0.5;" width="226" x="132.82" y="306.37"/><ellipse cx="147.82" cy="326.2645" fill="#ADD1B2" rx="11" ry="11" style="stroke:#181818;stroke-width:1.0;"/><path d="M150.7888,331.9052 Q150.2106,332.202 149.57,332.3427 Q148.9294,332.4989 148.2263,332.4989 Q145.7263,332.4989 144.3981,330.8583 Q143.0856,329.202 143.0856,326.077 Q143.0856,322.952 144.3981,321.2958 Q145.7263,319.6395 148.2263,319.6395 Q148.9294,319.6395 149.57,319.7958 Q150.2263,319.952 150.7888,320.2489 L150.7888,322.9677 Q150.1638,322.3895 149.57,322.1239 Q148.9763,321.8427 148.3513,321.8427 Q147.0075,321.8427 146.32,322.9208 Q145.6325,323.9833 145.6325,326.077 Q145.6325,328.1708 146.32,329.2489 Q147.0075,330.3114 148.3513,330.3114 Q148.9763,330.3114 149.57,330.0458 Q150.1638,329.7645 150.7888,329.1864 L150.7888,331.9052 Z " fill="#000000"/><text fill="#D9B8FF" font-family="Helvetica" font-size="17" lengthAdjust="spacing" textLength="184" x="166.82" y="332.1498">aws_alb_target_group</text></g><!--class aws_ec2_instance--><g id="elem_aws_ec2_instance"><rect codeLine="29" fill="#3D176E" height="39.7891" id="aws_ec2_instance" rx="2.5" ry="2.5" style="stroke:#000D19;stroke-width:0.5;" width="192" x="149.82" y="406.16"/><ellipse cx="164.82" cy="426.0545" fill="#ADD1B2" rx="11" ry="11" style="stroke:#181818;stroke-width:1.0;"/><path d="M167.7888,431.6952 Q167.2106,431.992 166.57,432.1327 Q165.9294,432.2889 165.2263,432.2889 Q162.7263,432.2889 161.3981,430.6483 Q160.0856,428.992 160.0856,425.867 Q160.0856,422.742 161.3981,421.0858 Q162.7263,419.4295 165.2263,419.4295 Q165.9294,419.4295 166.57,419.5858 Q167.2263,419.742 167.7888,420.0389 L167.7888,422.7577 Q167.1638,422.1795 166.57,421.9139 Q165.9763,421.6327 165.3513,421.6327 Q164.0075,421.6327 163.32,422.7108 Q162.6325,423.7733 162.6325,425.867 Q162.6325,427.9608 163.32,429.0389 Q164.0075,430.1014 165.3513,430.1014 Q165.9763,430.1014 166.57,429.8358 Q167.1638,429.5545 167.7888,428.9764 L167.7888,431.6952 Z " fill="#000000"/><text fill="#D9B8FF" font-family="Helvetica" font-size="17" lengthAdjust="spacing" textLength="150" x="183.82" y="431.9398">aws_ec2_instance</text></g><!--class aws_ecs_service--><g id="elem_aws_ecs_service"><rect codeLine="32" fill="#3D176E" height="39.7891" id="aws_ecs_service" rx="2.5" ry="2.5" style="stroke:#000D19;stroke-width:0.5;" width="177" x="68.32" y="206.58"/><ellipse cx="83.32" cy="226.4745" fill="#ADD1B2" rx="11" ry="11" style="stroke:#181818;stroke-width:1.0;"/><path d="M86.2888,232.1152 Q85.7106,232.412 85.07,232.5527 Q84.4294,232.7089 83.7263,232.7089 Q81.2263,232.7089 79.8981,231.0683 Q78.5856,229.412 78.5856,226.287 Q78.5856,223.162 79.8981,221.5058 Q81.2263,219.8495 83.7263,219.8495 Q84.4294,219.8495 85.07,220.0058 Q85.7263,220.162 86.2888,220.4589 L86.2888,223.1777 Q85.6638,222.5995 85.07,222.3339 Q84.4763,222.0527 83.8513,222.0527 Q82.5075,222.0527 81.82,223.1308 Q81.1325,224.1933 81.1325,226.287 Q81.1325,228.3808 81.82,229.4589 Q82.5075,230.5214 83.8513,230.5214 Q84.4763,230.5214 85.07,230.2558 Q85.6638,229.9745 86.2888,229.3964 L86.2888,232.1152 Z " fill="#000000"/><text fill="#D9B8FF" font-family="Helvetica" font-size="17" lengthAdjust="spacing" textLength="135" x="102.32" y="232.3598">aws_ecs_service</text></g><!--class aws_region--><g id="elem_aws_region"><rect codeLine="35" fill="#3D176E" height="39.7891" id="aws_region" rx="2.5" ry="2.5" style="stroke:#000D19;stroke-width:0.5;" width="137" x="52.32" y="7"/><ellipse cx="67.32" cy="26.8945" fill="#ADD1B2" rx="11" ry="11" style="stroke:#181818;stroke-width:1.0;"/><path d="M70.2888,32.5352 Q69.7106,32.832 69.07,32.9727 Q68.4294,33.1289 67.7263,33.1289 Q65.2263,33.1289 63.8981,31.4883 Q62.5856,29.832 62.5856,26.707 Q62.5856,23.582 63.8981,21.9258 Q65.2263,20.2695 67.7263,20.2695 Q68.4294,20.2695 69.07,20.4258 Q69.7263,20.582 70.2888,20.8789 L70.2888,23.5977 Q69.6638,23.0195 69.07,22.7539 Q68.4763,22.4727 67.8513,22.4727 Q66.5075,22.4727 65.82,23.5508 Q65.1325,24.6133 65.1325,26.707 Q65.1325,28.8008 65.82,29.8789 Q66.5075,30.9414 67.8513,30.9414 Q68.4763,30.9414 69.07,30.6758 Q69.6638,30.3945 70.2888,29.8164 L70.2888,32.5352 Z " fill="#000000"/><text fill="#D9B8FF" font-family="Helvetica" font-size="17" lengthAdjust="spacing" textLength="95" x="86.32" y="32.7798">aws_region</text></g><!--class aws_vpc--><g id="elem_aws_vpc"><rect codeLine="38" fill="#3D176E" height="39.7891" id="aws_vpc" rx="2.5" ry="2.5" style="stroke:#000D19;stroke-width:0.5;" width="112" x="332.82" y="106.79"/><ellipse cx="347.82" cy="126.6845" fill="#ADD1B2" rx="11" ry="11" style="stroke:#181818;stroke-width:1.0;"/><path d="M350.7888,132.3252 Q350.2106,132.622 349.57,132.7627 Q348.9294,132.9189 348.2263,132.9189 Q345.7263,132.9189 344.3981,131.2783 Q343.0856,129.622 343.0856,126.497 Q343.0856,123.372 344.3981,121.7158 Q345.7263,120.0595 348.2263,120.0595 Q348.9294,120.0595 349.57,120.2158 Q350.2263,120.372 350.7888,120.6689 L350.7888,123.3877 Q350.1638,122.8095 349.57,122.5439 Q348.9763,122.2627 348.3513,122.2627 Q347.0075,122.2627 346.32,123.3408 Q345.6325,124.4033 345.6325,126.497 Q345.6325,128.5908 346.32,129.6689 Q347.0075,130.7314 348.3513,130.7314 Q348.9763,130.7314 349.57,130.4658 Q350.1638,130.1845 350.7888,129.6064 L350.7888,132.3252 Z " fill="#000000"/><text fill="#D9B8FF" font-family="Helvetica" font-size="17" lengthAdjust="spacing" textLength="70" x="366.82" y="132.5698">aws_vpc</text></g><!--link aws_alb to aws_alb_target_group--><g id="link_aws_alb_aws_alb_target_group"><path codeLine="41" d="M317.24,246.8 C301.64,263.94 282.9972,284.4114 267.4072,301.5514 " fill="none" id="aws_alb-to-aws_alb_target_group" style="stroke:#1A83AF;stroke-width:2.0;"/><polygon fill="#1A83AF" points="263.37,305.99,272.3849,302.0236,266.7343,302.2912,266.4667,296.6407,263.37,305.99" style="stroke:#1A83AF;stroke-width:2.0;"/></g><!--link aws_alb_target_group to aws_ec2_instance--><g id="link_aws_alb_target_group_aws_ec2_instance"><path codeLine="42" d="M245.82,346.59 C245.82,363.73 245.82,382.64 245.82,399.78 " fill="none" id="aws_alb_target_group-to-aws_ec2_instance" style="stroke:#1A83AF;stroke-width:2.0;"/><polygon fill="#1A83AF" points="245.82,405.78,249.82,396.78,245.82,400.78,241.82,396.78,245.82,405.78" style="stroke:#1A83AF;stroke-width:2.0;"/></g><!--link aws_ecs_service to aws_alb_target_group--><g id="link_aws_ecs_service_aws_alb_target_group"><path codeLine="43" d="M174.41,246.8 C190.01,263.94 208.6528,284.4114 224.2428,301.5514 " fill="none" id="aws_ecs_service-to-aws_alb_target_group" style="stroke:#1A83AF;stroke-width:2.0;"/><polygon fill="#1A83AF" points="228.28,305.99,225.1833,296.6407,224.9157,302.2912,219.2651,302.0236,228.28,305.99" style="stroke:#1A83AF;stroke-width:2.0;"/></g><!--link aws_region to aws_alb--><g id="link_aws_region_aws_alb"><path codeLine="44" d="M141.73,47.2 C182.64,84.98 268.4413,164.1902 309.4213,202.0202 " fill="none" id="aws_region-to-aws_alb" style="stroke:#1A83AF;stroke-width:2.0;"/><polygon fill="#1A83AF" points="313.83,206.09,309.9302,197.0461,310.1561,202.6985,304.5037,202.9244,313.83,206.09" style="stroke:#1A83AF;stroke-width:2.0;"/></g><!--link aws_region to aws_alb_target_group--><g id="link_aws_region_aws_alb_target_group"><path codeLine="45" d="M104.39,47 C72.06,87.01 6.96,181.31 50.82,246.37 C70.73,275.9 98.0926,292.4102 131.3526,303.9702 " fill="none" id="aws_region-to-aws_alb_target_group" style="stroke:#1A83AF;stroke-width:2.0;"/><polygon fill="#1A83AF" points="137.02,305.94,129.832,299.207,132.2971,304.2985,127.2056,306.7636,137.02,305.94" style="stroke:#1A83AF;stroke-width:2.0;"/></g><!--link aws_region to aws_ec2_instance--><g id="link_aws_region_aws_ec2_instance"><path codeLine="46" d="M91.87,47.03 C73.07,61.15 49.89,82.15 37.82,106.79 C10.47,162.65 6,188.13 27.82,246.37 C57.53,325.65 141.2414,376.7617 195.9014,403.2717 " fill="none" id="aws_region-to-aws_ec2_instance" style="stroke:#1A83AF;stroke-width:2.0;"/><polygon fill="#1A83AF" points="201.3,405.89,194.9477,398.3635,196.8012,403.7081,191.4566,405.5616,201.3,405.89" style="stroke:#1A83AF;stroke-width:2.0;"/></g><!--link aws_region to aws_vpc--><g id="link_aws_region_aws_vpc"><path codeLine="47" d="M173.77,47.22 C220.76,64.36 283.4035,87.2235 330.3535,104.3535 " fill="none" id="aws_region-to-aws_vpc" style="stroke:#1A83AF;stroke-width:2.0;"/><polygon fill="#1A83AF" points="335.99,106.41,328.9062,99.5675,331.2929,104.6962,326.1642,107.0829,335.99,106.41" style="stroke:#1A83AF;stroke-width:2.0;"/></g><!--link aws_vpc to aws_alb--><g id="link_aws_vpc_aws_alb"><path codeLine="48" d="M378.16,147.01 C368.69,164.15 357.8306,183.8177 348.3706,200.9477 " fill="none" id="aws_vpc-to-aws_alb" style="stroke:#1A83AF;stroke-width:2.0;"/><polygon fill="#1A83AF" points="345.47,206.2,353.3224,200.2553,347.8871,201.8231,346.3193,196.3878,345.47,206.2" style="stroke:#1A83AF;stroke-width:2.0;"/></g><!--link aws_vpc to aws_alb_target_group--><g id="link_aws_vpc_aws_alb_target_group"><path codeLine="49" d="M399.09,146.95 C410.8,171.83 426.01,215.6 406.82,246.37 C388.71,275.43 362.0345,291.9375 331.1145,303.7575 " fill="none" id="aws_vpc-to-aws_alb_target_group" style="stroke:#1A83AF;stroke-width:2.0;"/><polygon fill="#1A83AF" points="325.51,305.9,335.345,306.4226,330.1804,304.1146,332.4884,298.95,325.51,305.9" style="stroke:#1A83AF;stroke-width:2.0;"/></g><!--link aws_vpc to aws_ec2_instance--><g id="link_aws_vpc_aws_ec2_instance"><path codeLine="50" d="M404.77,147.01 C416.18,162.17 430.59,184.35 436.82,206.58 C441.6,223.61 441.55,229.33 436.82,246.37 C422.99,296.24 413.4,309.55 376.82,346.16 C351.58,371.42 322.0619,389.2173 294.6419,402.9873 " fill="none" id="aws_vpc-to-aws_ec2_instance" style="stroke:#1A83AF;stroke-width:2.0;"/><polygon fill="#1A83AF" points="289.28,405.68,299.1179,405.2156,293.7482,403.4361,295.5277,398.0664,289.28,405.68" style="stroke:#1A83AF;stroke-width:2.0;"/></g><!--SRC=[ZP31Ri8m38RlUOf8d97eq0PS9dL8QBkWQUmsJPNRk2MYJIedWDYqTnyTC8Ma1Qx-FzkVlPG2ELQrtV4AgnJ9CBEIgWQ2YiT4UZlLfIRUotF8XoC_d6bbhm9pg90_Oxb1ApFmYVUbp5OAZU5tJlG4sQeWlLRYCDuIABEFK5c7cfPWJ6mjoNHjqP4HatISvpxf3-qDHJHwm03J992Eo60m4D74HwwkkdZtFx6GNyWZzsbpRJ7G35RyKHSj6yAH30uzvPsEho24L0M_Tsfl1oTII6VrnHA4tZPq3gLnrnYBXDhkQfm6L-5aBF9HA_pI1REiUHs7hKcWJFatOp_dfSG25MYJfhdsSypk4gcC1PLXc9d486ra614MKYk_kgcpG-aaq__eHV5u6Cy- -u-jEgpLCMXpBPclTjkIet4RV2s_VLZWsGNkFyLE7-jKwWf3drRoJEON]--></g></svg>

<svg xmlns="http://www.w3.org/2000/svg" width="451" height="451" viewBox="0 0 451 451"><rect width="109" height="39.789" x="280.32" y="206.58" fill="#3D176E" rx="2.5" ry="2.5" style="stroke:#000d19;stroke-width:.5"/><circle cx="295.32" cy="226.475" r="11" fill="#ADD1B2" style="stroke:#181818;stroke-width:1"/><path d="M298.289 232.115q-.578.297-1.219.438-.64.156-1.344.156-2.5 0-3.828-1.64-1.312-1.657-1.312-4.782t1.312-4.781q1.328-1.656 3.828-1.656.703 0 1.344.156.656.156 1.219.453v2.719q-.625-.578-1.219-.844-.594-.281-1.219-.281-1.344 0-2.031 1.078-.687 1.062-.687 3.156t.687 3.172q.688 1.062 2.031 1.062.625 0 1.219-.265.594-.281 1.219-.86z"/><text x="314.32" y="232.36" fill="#D9B8FF" font-family="Helvetica" font-size="17" textLength="67">aws_alb</text><rect width="226" height="39.789" x="132.82" y="306.37" fill="#3D176E" rx="2.5" ry="2.5" style="stroke:#000d19;stroke-width:.5"/><circle cx="147.82" cy="326.264" r="11" fill="#ADD1B2" style="stroke:#181818;stroke-width:1"/><path d="M150.789 331.905q-.578.297-1.219.438-.64.156-1.344.156-2.5 0-3.828-1.64-1.312-1.657-1.312-4.782t1.312-4.781q1.328-1.656 3.828-1.656.703 0 1.344.156.656.156 1.219.453v2.719q-.625-.579-1.219-.844-.594-.281-1.219-.281-1.344 0-2.031 1.078-.687 1.062-.687 3.156t.687 3.172q.688 1.062 2.031 1.062.625 0 1.219-.265.594-.281 1.219-.86z"/><text x="166.82" y="332.15" fill="#D9B8FF" font-family="Helvetica" font-size="17" textLength="184">aws_alb_target_group</text><rect width="192" height="39.789" x="149.82" y="406.16" fill="#3D176E" rx="2.5" ry="2.5" style="stroke:#000d19;stroke-width:.5"/><circle cx="164.82" cy="426.055" r="11" fill="#ADD1B2" style="stroke:#181818;stroke-width:1"/><path d="M167.789 431.695q-.578.297-1.219.438-.64.156-1.344.156-2.5 0-3.828-1.64-1.312-1.657-1.312-4.782t1.312-4.781q1.328-1.656 3.828-1.656.703 0 1.344.156.656.156 1.219.453v2.719q-.625-.578-1.219-.844-.594-.281-1.219-.281-1.344 0-2.031 1.078-.687 1.062-.687 3.156t.687 3.172q.688 1.062 2.031 1.062.625 0 1.219-.265.594-.281 1.219-.86z"/><text x="183.82" y="431.94" fill="#D9B8FF" font-family="Helvetica" font-size="17" textLength="150">aws_ec2_instance</text><rect width="177" height="39.789" x="68.32" y="206.58" fill="#3D176E" rx="2.5" ry="2.5" style="stroke:#000d19;stroke-width:.5"/><circle cx="83.32" cy="226.475" r="11" fill="#ADD1B2" style="stroke:#181818;stroke-width:1"/><path d="M86.289 232.115q-.578.297-1.219.438-.64.156-1.344.156-2.5 0-3.828-1.64-1.312-1.657-1.312-4.782t1.312-4.781q1.328-1.656 3.828-1.656.703 0 1.344.156.656.156 1.219.453v2.719q-.625-.578-1.219-.844-.594-.281-1.219-.281-1.344 0-2.031 1.078-.687 1.062-.687 3.156t.687 3.172q.688 1.062 2.031 1.062.625 0 1.219-.265.594-.281 1.219-.86z"/><text x="102.32" y="232.36" fill="#D9B8FF" font-family="Helvetica" font-size="17" textLength="135">aws_ecs_service</text><rect width="137" height="39.789" x="52.32" y="7" fill="#3D176E" rx="2.5" ry="2.5" style="stroke:#000d19;stroke-width:.5"/><circle cx="67.32" cy="26.895" r="11" fill="#ADD1B2" style="stroke:#181818;stroke-width:1"/><path d="M70.289 32.535q-.578.297-1.219.438-.64.156-1.344.156-2.5 0-3.828-1.64-1.312-1.657-1.312-4.782t1.312-4.781q1.328-1.656 3.828-1.656.703 0 1.344.156.656.156 1.219.453v2.719q-.625-.578-1.219-.844-.594-.281-1.219-.281-1.344 0-2.031 1.078-.687 1.062-.687 3.156t.687 3.172q.688 1.062 2.031 1.062.625 0 1.219-.265.594-.281 1.219-.86z"/><text x="86.32" y="32.78" fill="#D9B8FF" font-family="Helvetica" font-size="17" textLength="95">aws_region</text><rect width="112" height="39.789" x="332.82" y="106.79" fill="#3D176E" rx="2.5" ry="2.5" style="stroke:#000d19;stroke-width:.5"/><circle cx="347.82" cy="126.684" r="11" fill="#ADD1B2" style="stroke:#181818;stroke-width:1"/><path d="M350.789 132.325q-.578.297-1.219.438-.64.156-1.344.156-2.5 0-3.828-1.64-1.312-1.657-1.312-4.782t1.312-4.781q1.328-1.656 3.828-1.656.703 0 1.344.156.656.156 1.219.453v2.719q-.625-.579-1.219-.844-.594-.281-1.219-.281-1.344 0-2.031 1.078-.687 1.062-.687 3.156t.687 3.172q.688 1.062 2.031 1.062.625 0 1.219-.265.594-.281 1.219-.86z"/><text x="366.82" y="132.57" fill="#D9B8FF" font-family="Helvetica" font-size="17" textLength="70">aws_vpc</text><path fill="none" d="M317.24 246.8c-15.6 17.14-34.243 37.611-49.833 54.751" style="stroke:#1a83af;stroke-width:2"/><path fill="#1A83AF" d="m263.37 305.99 9.015-3.966-5.65.267-.268-5.65z" style="stroke:#1a83af;stroke-width:2"/><path fill="none" d="M245.82 346.59v53.19" style="stroke:#1a83af;stroke-width:2"/><path fill="#1A83AF" d="m245.82 405.78 4-9-4 4-4-4z" style="stroke:#1a83af;stroke-width:2"/><path fill="none" d="M174.41 246.8c15.6 17.14 34.243 37.611 49.833 54.751" style="stroke:#1a83af;stroke-width:2"/><path fill="#1A83AF" d="m228.28 305.99-3.097-9.35-.267 5.651-5.65-.267z" style="stroke:#1a83af;stroke-width:2"/><path fill="none" d="M141.73 47.2c40.91 37.78 126.711 116.99 167.691 154.82" style="stroke:#1a83af;stroke-width:2"/><path fill="#1A83AF" d="m313.83 206.09-3.9-9.044.226 5.653-5.652.225z" style="stroke:#1a83af;stroke-width:2"/><path fill="none" d="M104.39 47C72.06 87.01 6.96 181.31 50.82 246.37c19.91 29.53 47.273 46.04 80.533 57.6" style="stroke:#1a83af;stroke-width:2"/><path fill="#1A83AF" d="m137.02 305.94-7.188-6.733 2.465 5.091-5.091 2.466z" style="stroke:#1a83af;stroke-width:2"/><path fill="none" d="M91.87 47.03c-18.8 14.12-41.98 35.12-54.05 59.76-27.35 55.86-31.82 81.34-10 139.58 29.71 79.28 113.421 130.392 168.081 156.902" style="stroke:#1a83af;stroke-width:2"/><path fill="#1A83AF" d="m201.3 405.89-6.352-7.526 1.853 5.344-5.344 1.854z" style="stroke:#1a83af;stroke-width:2"/><path fill="none" d="M173.77 47.22c46.99 17.14 109.634 40.004 156.584 57.134" style="stroke:#1a83af;stroke-width:2"/><path fill="#1A83AF" d="m335.99 106.41-7.084-6.843 2.387 5.13-5.129 2.386z" style="stroke:#1a83af;stroke-width:2"/><path fill="none" d="M378.16 147.01c-9.47 17.14-20.33 36.808-29.79 53.938" style="stroke:#1a83af;stroke-width:2"/><path fill="#1A83AF" d="m345.47 206.2 7.852-5.945-5.435 1.568-1.568-5.435z" style="stroke:#1a83af;stroke-width:2"/><path fill="none" d="M399.09 146.95c11.71 24.88 26.92 68.65 7.73 99.42-18.11 29.06-44.786 45.567-75.705 57.387" style="stroke:#1a83af;stroke-width:2"/><path fill="#1A83AF" d="m325.51 305.9 9.835.523-5.165-2.308 2.308-5.165z" style="stroke:#1a83af;stroke-width:2"/><path fill="none" d="M404.77 147.01c11.41 15.16 25.82 37.34 32.05 59.57 4.78 17.03 4.73 22.75 0 39.79-13.83 49.87-23.42 63.18-60 99.79-25.24 25.26-54.758 43.057-82.178 56.827" style="stroke:#1a83af;stroke-width:2"/><path fill="#1A83AF" d="m289.28 405.68 9.838-.464-5.37-1.78 1.78-5.37z" style="stroke:#1a83af;stroke-width:2"/></svg>
